la/uber.svg

<svg xmlns="http://www.w3.org/2000/svg" viewBox="0 0 32 32" height="1em" width="1em">
  <path d="M 16 3 C 8.8 3 3 8.8 3 16 C 3 23.2 8.8 29 16 29 C 23.2 29 29 23.2 29 16 C 29 8.8 23.2 3 16 3 z M 16 5 C 22.1 5 27 9.9 27 16 C 27 22.1 22.1 27 16 27 C 10.237727 27 5.5526049 22.62604 5.0507812 17 L 13 17 L 13 19 L 19 19 L 19 13 L 13 13 L 13 15 L 5.0507812 15 C 5.5526049 9.3739595 10.237727 5 16 5 z"/>
</svg>

<svg xmlns="http://www.w3.org/2000/svg" viewBox="0 0 32 32" height="1em" width="1em">
  <path d="M16 3C8.8 3 3 8.8 3 16s5.8 13 13 13 13-5.8 13-13S23.2 3 16 3zm0 2c6.1 0 11 4.9 11 11s-4.9 11-11 11A10.96 10.96 0 0 1 5.05 17H13v2h6v-6h-6v2H5.05A10.96 10.96 0 0 1 16 5z"/>
</svg>
